X:1381
T:Vals efter farfadern
T:(SvL Dalarna 1381)
R:Vals
S:Vilhelm Hedlund
O:Enviken, Dalarna
B:Svenska Låtar Dalarna
M:3/4
L:1/8
Q:3/4=58
K:Am
uE2|vA2 (A^G) (EG)|A2 (Ac) (Bd)|c2 (ce) (dB)|c2 (cA) B2|
A2 (A^G) (EG)|A2 (Ac) (Bd)|c2 (ce) dB|A2 z2:|
|:uc2|e2 (ed) (fd)|e2 (ec) dB|c2 (cA) (B^G)|A2 (A^G) E2|
e2 (ed) (fd)|e2 (ec) (dB)|c2 (cA) B^G|A2 z2:|

